!!!COM: Schubert, Franz
!!!CNT: Deutscher
!!!TXO: Deutsch
!!!LYR: Samuel Friedrich Sauter
!!!OTL: "Der Wachtelschlag"
!!!OPS: Op. 68
!!!ODT: 1822/
!!NB: Vocal melody only encoded.
!!NB: Original key: A major
**kern	**silbe
*clefG2	*
*k[f#]	*
*M6/8	*
*MM[Etwas lebhaft]	*
=4	=4
{8dd	{Ach!
8b	wie
8a	schallt's
4g	dor-
16b	-ten
16cc	so
=5	=5
8dd	lieb-
8b	-lich
8a	her-
4g}	-vor:}
{16.b	{Fu2rch-
32b	-te
=6	=6
4b	Gott!
16.b	fu2rch-
32b	-te
4b}	Gott!}
8r	.
=7	=7
{16dd	{ruft
16cc#	|
16b	mir
16a	|
16g	die
16f#	|
8.b	Wach-
16c#	-tel
8c#	in's
=8	=8
4d}	Ohr.}
8r	.
8r	.
8r	.
8r	.
=9	=9
{8.b	{Sit-
16b	-zend
8b	im
8b	Gru2-
8cc	-nen,
16cc	von
16b	|
=10	=10
8.a	Hal-
16a	-men
8a	um-
8a#	-hu2llt
8b}	|}
8r	.
=11	=11
{8.cc	{mahnt
16cc	sie
8g#	den
8.cc	Hor-
16cc	-cher
8g#	im
=12	=12
8a	Saa-
8cc	-ten-
8ee-	-ge-
4dd}	-fild:}
{16.een	{Lie-
32dd	-be
=13	=13
4dd	Gott!
16.ee	lie-
32dd	-be
4.dd}	Gott!}
=14	=14
{16ee	{er
16dd	|
16cc	ist
16b	|
16a	so
16g	|
8.cc	gu2-
16f#	-tig,
8f#	so
=15	=15
4g}	mild.}
8r	.
8r	.
8r	.
8r	.
=16	=16
{8dd	{Wie-
8b	-der
8a	be-
4g	-deu-
16b	-tet
16cc	ihr
=17	=17
8dd	hu2p-
8b	-fen-
8a	-der
4g}	Schlag:}
{16.b	{Lo-
32b	-be
=18	=18
4b	Gott!
16.b	lo-
32b	-be
4b}	Gott!}
8r	.
=19	=19
{16dd	{der
16cc#	|
16b	dich
16a	|
16g	zu
16f#	|
8.b	loh-
16c#	-nen
8c#	ver-
=20	=20
4d}	-mag.}
8r	.
8r	.
8r	.
8r	.
=21	=21
{8.b	{Siehst
16b	du
8b	die
8b	herr-
8cc	-li-
16cc	-chen
16b	|
=22	=22
8.a	Fu2rch-
16a	-te
8a	im
8a#	Feld?
8b}	|}
8r	.
=23	=23
{8.cc	{Nimm
16cc	es
8g#	zu
8.cc	Her-
16cc	zen,
8g#	Be-
=24	=24
8a	-woh-
8cc	-ner
8ee-	der
4dd}	Welt:}
{16.een	{Dan-
32dd	-ke
=25	=25
4dd	Gott!
16.ee	dan-
32dd	-ke
4.dd}	Gott!}
=26	=26
{16ee	{der
16dd	|
16cc	dich
16b	|
16a	er-
16g	|
8.cc	-na2hrt
16f#	und
8f#	er-
=27	=27
4g}	-ha2lt.}
8r	.
8r	.
8r	.
8r	.
=28	=28
*k[b-e-]	*
{8dd	{Schreckt
8b-	dich
8a	im
4g	Wet-
16b-	-ter
16cc	der
=29	=29
8dd	Herr
8b-	der
8a	Na-
4g}	-tur:}
{16.b-	Bit-
32b-	-te
=30	=30
4b-	Gott!
16.b-	bit-
32b-	-te
4.b-}	Gott!}
=31	=31
{16ee-	{ruft
16dd	|
16cc	sie,
16b-	|
16a-	er
16g	|
8.cc	scho-
16d	-net
8d	die
=32	=32
8e-}	Flur.}
{8g	{Ma-
16.g	-chen
32g	Ge-
8b-	-fah-
8g	-ren
16r	.
16g	der
=33	=33
8.g	Krie-
16f#	-ger
8g	dir
4a}	bang:}
{16.een	{Trau-
32dd	-e
=34	=34
*k[f#]	*
4dd	Gott!
16.ee	trau-
32dd	-e
4.dd}	Gott!}
=35	=35
{16ee	{sieh',
16dd	|
16cc	er
16b	|
16a	ver-
16g	|
8.cc	-zie-
16f#	-het
8f#	nicht
=36	=36
4g}	lang,}
8r	.
{16ee	{sieh',
16dd	|
16cc	er
16b	|
16a	ver-
16g	|
=37	=37
[4.cc	-zie-
8cc]	|
8f#	-het
8f#	nicht
=38	=38
4g}	lang.}
8r	.
8r	.
8r	.
8r	.
==	==
*-	*-